!! 00000] TT[WS
!!!OTL: Sibao zhuzhu
!!!ARE: Asia, China, Shanxi Qinyuan
!! Ethnic Group: Han
!! WII, 48 (1)
!!!SCT: J0464
!!!YEM: Copyright 1995, estate of Helmut Schaffrath.
**kern
*ICvox
*Ivox
*M2/4
*k[b-e-]
*B-:
{8ccc
16fff
16fff
16fff
8ddd
16ccc
=1
16fff
8ddd
16ccc
4bb-
=2
16bb-
8ccc
16ddd
16ccc
8ccc
16bb-
=3
16ccc
8aa
16gg
4ff}
=4
{16dd
8ff
16gg
16bb-
8bb-
16gg
=5
16dd
8ff
16gg
4bb-
=6
16bb-
8ccc
16fff
16ccc
8bb-
16gg
=7
16dd
8ff
16gg
8.bb-
16ccc
=8
16ff
8gg
16dd
4cc}
==
!!!AGN: Xiaodiao. Qingge
!!!ONB: ESAC (Essen Associative Code) Database: CHINA
!!!AMT: simple duple
!!!AIN: vox
!!!EED: Helmut Schaffrath
!!!EEV: 1.0
*-
